images/footer/viber.svg

<svg width="25" height="25" viewBox="0 0 25 25" fill="none" xmlns="http://www.w3.org/2000/svg">
<path fill-rule="evenodd" clip-rule="evenodd" d="M17.176 3.12805C14.0298 2.42477 10.7672 2.42477 7.62101 3.12805L7.28201 3.20305C6.39702 3.40091 5.58421 3.84023 4.93387 4.47221C4.28353 5.10419 3.82112 5.90409 3.59801 6.78305C2.8005 9.92557 2.8005 13.2175 3.59801 16.36C3.81078 17.1983 4.24141 17.9654 4.84624 18.5836C5.45107 19.2018 6.20859 19.649 7.04201 19.88L7.50701 22.656C7.52185 22.7442 7.56005 22.8268 7.61764 22.8951C7.67523 22.9635 7.75009 23.0152 7.83443 23.0448C7.91877 23.0744 8.00951 23.0809 8.0972 23.0635C8.18489 23.0461 8.26632 23.0056 8.33301 22.946L11.064 20.503C13.1141 20.6282 15.1716 20.4642 17.176 20.016L17.516 19.941C18.401 19.7432 19.2138 19.3039 19.8641 18.6719C20.5145 18.0399 20.9769 17.24 21.2 16.361C21.9974 13.2185 21.9974 9.92658 21.2 6.78405C20.9768 5.90496 20.5142 5.10498 19.8637 4.47298C19.2132 3.84099 18.4002 3.40174 17.515 3.20405L17.176 3.12805ZM8.46501 6.70205C8.27915 6.67499 8.08964 6.7124 7.92801 6.80805H7.91401C7.53901 7.02805 7.20101 7.30505 6.91301 7.63105C6.67301 7.90805 6.54301 8.18805 6.50901 8.45805C6.48901 8.61805 6.50301 8.78004 6.55001 8.93304L6.56801 8.94305C6.83801 9.73605 7.19001 10.499 7.62001 11.217C8.17446 12.2255 8.85676 13.1582 9.65 13.992L9.67401 14.026L9.71201 14.054L9.735 14.081L9.763 14.105C10.5997 14.9007 11.5346 15.5862 12.545 16.145C13.7 16.774 14.401 17.071 14.822 17.195V17.201C14.945 17.239 15.057 17.256 15.17 17.256C15.5285 17.2295 15.8679 17.0838 16.134 16.842C16.459 16.554 16.734 16.215 16.948 15.838V15.831C17.149 15.451 17.081 15.093 16.791 14.85C16.2085 14.3411 15.5786 13.889 14.91 13.5C14.462 13.257 14.007 13.404 13.823 13.65L13.43 14.146C13.228 14.392 12.862 14.358 12.862 14.358L12.852 14.364C10.121 13.667 9.39201 10.902 9.39201 10.902C9.39201 10.902 9.35801 10.526 9.61101 10.334L10.103 9.93805C10.339 9.74605 10.503 9.29205 10.25 8.84405C9.86361 8.17481 9.41245 7.54512 8.90301 6.96405C8.79189 6.82729 8.63607 6.73415 8.46301 6.70105L8.46501 6.70205ZM13.079 5.50005C12.9464 5.50005 12.8192 5.55272 12.7255 5.64649C12.6317 5.74026 12.579 5.86744 12.579 6.00005C12.579 6.13265 12.6317 6.25983 12.7255 6.3536C12.8192 6.44737 12.9464 6.50005 13.079 6.50005C14.344 6.50005 15.394 6.91305 16.225 7.70505C16.652 8.13805 16.985 8.65105 17.203 9.21305C17.422 9.77605 17.522 10.377 17.496 10.979C17.4932 11.0447 17.5034 11.1103 17.526 11.172C17.5486 11.2337 17.5831 11.2904 17.6276 11.3387C17.7174 11.4365 17.8424 11.4945 17.975 11.5C18.1076 11.5056 18.237 11.4583 18.3347 11.3684C18.4324 11.2786 18.4904 11.1537 18.496 11.021C18.527 10.2805 18.4041 9.54163 18.135 8.85105C17.8647 8.15718 17.455 7.52616 16.931 6.99705L16.921 6.98705C15.89 6.00205 14.585 5.50005 13.079 5.50005ZM13.045 7.14405C12.9124 7.14405 12.7852 7.19672 12.6915 7.29049C12.5977 7.38426 12.545 7.51144 12.545 7.64405C12.545 7.77665 12.5977 7.90383 12.6915 7.9976C12.7852 8.09137 12.9124 8.14405 13.045 8.14405H13.062C13.974 8.20905 14.638 8.51305 15.103 9.01205C15.58 9.52605 15.827 10.165 15.808 10.955C15.805 11.0877 15.8547 11.216 15.9463 11.312C16.0379 11.4079 16.1639 11.4635 16.2965 11.4665C16.4291 11.4696 16.5575 11.4198 16.6534 11.3282C16.7494 11.2366 16.805 11.1107 16.808 10.978C16.832 9.94104 16.498 9.04605 15.836 8.33205V8.33005C15.159 7.60405 14.23 7.22005 13.112 7.14505L13.095 7.14305L13.045 7.14405ZM13.026 8.81905C12.9591 8.81314 12.8917 8.82078 12.8278 8.84151C12.7639 8.86223 12.7048 8.89562 12.6541 8.93968C12.6034 8.98374 12.5621 9.03757 12.5327 9.09794C12.5032 9.15832 12.4862 9.22401 12.4827 9.29109C12.4792 9.35818 12.4893 9.42528 12.5123 9.48839C12.5353 9.5515 12.5708 9.60932 12.6167 9.65841C12.6625 9.7075 12.7178 9.74685 12.7792 9.7741C12.8406 9.80136 12.9068 9.81596 12.974 9.81705C13.392 9.83905 13.659 9.96505 13.827 10.134C13.996 10.304 14.122 10.577 14.145 11.004C14.1463 11.0711 14.161 11.1373 14.1884 11.1986C14.2157 11.2599 14.2551 11.315 14.3043 11.3607C14.3534 11.4065 14.4112 11.4418 14.4743 11.4647C14.5374 11.4876 14.6044 11.4976 14.6714 11.494C14.7385 11.4905 14.8041 11.4735 14.8644 11.444C14.9247 11.4146 14.9784 11.3733 15.0224 11.3226C15.0664 11.2719 15.0998 11.2129 15.1205 11.1491C15.1412 11.0853 15.1489 11.0179 15.143 10.951C15.111 10.351 14.923 9.82105 14.538 9.43105C14.151 9.04105 13.624 8.85105 13.026 8.81905Z" fill="#B7009A"/>
<path d="M8.46501 6.70205C8.27915 6.67499 8.08964 6.7124 7.92801 6.80805H7.91401C7.53901 7.02805 7.20101 7.30505 6.91301 7.63105C6.67301 7.90805 6.54301 8.18805 6.50901 8.45805C6.48901 8.61805 6.50301 8.78004 6.55001 8.93304L6.56801 8.94305C6.83801 9.73605 7.19001 10.499 7.62001 11.217C8.17446 12.2255 8.85676 13.1582 9.65 13.992L9.67401 14.026L9.71201 14.054L9.735 14.081L9.763 14.105C10.5997 14.9007 11.5346 15.5862 12.545 16.145C13.7 16.774 14.401 17.071 14.822 17.195V17.201C14.945 17.239 15.057 17.256 15.17 17.256C15.5285 17.2295 15.8679 17.0838 16.134 16.842C16.459 16.554 16.734 16.215 16.948 15.838V15.831C17.149 15.451 17.081 15.093 16.791 14.85C16.2085 14.3411 15.5786 13.889 14.91 13.5C14.462 13.257 14.007 13.404 13.823 13.65L13.43 14.146C13.228 14.392 12.862 14.358 12.862 14.358L12.852 14.364C10.121 13.667 9.39201 10.902 9.39201 10.902C9.39201 10.902 9.35801 10.526 9.61101 10.334L10.103 9.93805C10.339 9.74605 10.503 9.29205 10.25 8.84405C9.86361 8.17481 9.41245 7.54512 8.90301 6.96405C8.79189 6.82729 8.63607 6.73415 8.46301 6.70105L8.46501 6.70205Z" fill="white"/>
<path d="M13.079 5.50005C12.9464 5.50005 12.8192 5.55272 12.7255 5.64649C12.6317 5.74026 12.579 5.86744 12.579 6.00005C12.579 6.13265 12.6317 6.25983 12.7255 6.3536C12.8192 6.44737 12.9464 6.50005 13.079 6.50005C14.344 6.50005 15.394 6.91305 16.225 7.70505C16.652 8.13805 16.985 8.65105 17.203 9.21305C17.422 9.77605 17.522 10.377 17.496 10.979C17.4932 11.0447 17.5034 11.1103 17.526 11.172C17.5486 11.2337 17.5831 11.2904 17.6276 11.3387C17.7174 11.4365 17.8424 11.4945 17.975 11.5C18.1076 11.5056 18.237 11.4583 18.3347 11.3684C18.4324 11.2786 18.4904 11.1537 18.496 11.021C18.527 10.2805 18.4041 9.54163 18.135 8.85105C17.8647 8.15718 17.455 7.52616 16.931 6.99705L16.921 6.98705C15.89 6.00205 14.585 5.50005 13.079 5.50005Z" fill="white"/>
<path d="M13.045 7.14405C12.9124 7.14405 12.7852 7.19672 12.6915 7.29049C12.5977 7.38426 12.545 7.51144 12.545 7.64405C12.545 7.77665 12.5977 7.90383 12.6915 7.9976C12.7852 8.09137 12.9124 8.14405 13.045 8.14405H13.062C13.974 8.20905 14.638 8.51305 15.103 9.01205C15.58 9.52605 15.827 10.165 15.808 10.955C15.805 11.0877 15.8547 11.216 15.9463 11.312C16.0379 11.4079 16.1639 11.4635 16.2965 11.4665C16.4291 11.4696 16.5575 11.4198 16.6534 11.3282C16.7494 11.2366 16.805 11.1107 16.808 10.978C16.832 9.94104 16.498 9.04605 15.836 8.33205V8.33005C15.159 7.60405 14.23 7.22005 13.112 7.14505L13.095 7.14305L13.045 7.14405Z" fill="white"/>
<path d="M13.026 8.81905C12.9591 8.81314 12.8917 8.82078 12.8278 8.84151C12.7639 8.86223 12.7048 8.89562 12.6541 8.93968C12.6034 8.98374 12.5621 9.03757 12.5327 9.09794C12.5032 9.15832 12.4862 9.22401 12.4827 9.29109C12.4792 9.35818 12.4893 9.42528 12.5123 9.48839C12.5353 9.5515 12.5708 9.60932 12.6167 9.65841C12.6625 9.7075 12.7178 9.74685 12.7792 9.7741C12.8406 9.80136 12.9068 9.81596 12.974 9.81705C13.392 9.83905 13.659 9.96505 13.827 10.134C13.996 10.304 14.122 10.577 14.145 11.004C14.1463 11.0711 14.161 11.1373 14.1884 11.1986C14.2157 11.2599 14.2551 11.315 14.3043 11.3607C14.3534 11.4065 14.4112 11.4418 14.4743 11.4647C14.5374 11.4876 14.6044 11.4976 14.6714 11.494C14.7385 11.4905 14.8041 11.4735 14.8644 11.444C14.9247 11.4146 14.9784 11.3733 15.0224 11.3226C15.0664 11.2719 15.0998 11.2129 15.1205 11.1491C15.1412 11.0853 15.1489 11.0179 15.143 10.951C15.111 10.351 14.923 9.82105 14.538 9.43105C14.151 9.04105 13.624 8.85105 13.026 8.81905Z" fill="white"/>
</svg>

<svg width="25" height="25" fill="none" xmlns="http://www.w3.org/2000/svg"><path fill-rule="evenodd" clip-rule="evenodd" d="M17.176 3.128a21.9 21.9 0 00-9.555 0l-.339.075a4.905 4.905 0 00-3.684 3.58 19.467 19.467 0 000 9.577 4.905 4.905 0 003.444 3.52l.465 2.776a.5.5 0 00.826.29l2.731-2.443c2.05.125 4.108-.039 6.112-.487l.34-.075a4.904 4.904 0 003.684-3.58 19.47 19.47 0 000-9.577 4.905 4.905 0 00-3.685-3.58l-.339-.076zM8.465 6.702a.822.822 0 00-.537.106h-.014c-.375.22-.713.497-1.001.823-.24.277-.37.557-.404.827-.02.16-.006.322.041.475l.018.01c.27.793.622 1.556 1.052 2.274a13.374 13.374 0 002.03 2.775l.024.034.038.028.023.027.028.024a13.56 13.56 0 002.782 2.04c1.155.629 1.856.926 2.277 1.05v.006c.123.038.235.055.348.055a1.61 1.61 0 00.964-.414c.325-.288.6-.627.814-1.004v-.007c.201-.38.133-.738-.157-.981a12.133 12.133 0 00-1.881-1.35c-.448-.243-.903-.096-1.087.15l-.393.496c-.202.246-.568.212-.568.212l-.01.006c-2.731-.697-3.46-3.462-3.46-3.462s-.034-.376.219-.568l.492-.396c.236-.192.4-.646.147-1.094a11.806 11.806 0 00-1.347-1.88.748.748 0 00-.44-.263l.002.001zM13.079 5.5a.5.5 0 100 1c1.265 0 2.315.413 3.146 1.205.427.433.76.946.978 1.508.219.563.319 1.164.293 1.766a.5.5 0 101 .042 5.36 5.36 0 00-.361-2.17 5.442 5.442 0 00-1.204-1.854l-.01-.01C15.89 6.002 14.585 5.5 13.079 5.5zm-.034 1.644a.5.5 0 100 1h.017c.912.065 1.576.369 2.041.868.477.514.724 1.153.705 1.943a.5.5 0 001 .023c.024-1.037-.31-1.932-.972-2.646V8.33c-.677-.726-1.606-1.11-2.724-1.185l-.017-.002-.05.001zm-.019 1.675a.5.5 0 10-.052.998c.418.022.685.148.853.317.169.17.295.443.318.87a.5.5 0 10.998-.053c-.032-.6-.22-1.13-.605-1.52-.387-.39-.914-.58-1.512-.612z" fill="#B7009A"/><path d="M8.465 6.702a.822.822 0 00-.537.106h-.014c-.375.22-.713.497-1.001.823-.24.277-.37.557-.404.827-.02.16-.006.322.041.475l.018.01c.27.793.622 1.556 1.052 2.274a13.374 13.374 0 002.03 2.775l.024.034.038.028.023.027.028.024a13.56 13.56 0 002.782 2.04c1.155.629 1.856.926 2.277 1.05v.006c.123.038.235.055.348.055a1.61 1.61 0 00.964-.414c.325-.288.6-.627.814-1.004v-.007c.201-.38.133-.738-.157-.981a12.133 12.133 0 00-1.881-1.35c-.448-.243-.903-.096-1.087.15l-.393.496c-.202.246-.568.212-.568.212l-.01.006c-2.731-.697-3.46-3.462-3.46-3.462s-.034-.376.219-.568l.492-.396c.236-.192.4-.646.147-1.094a11.806 11.806 0 00-1.347-1.88.748.748 0 00-.44-.263l.002.001zM13.079 5.5a.5.5 0 100 1c1.265 0 2.315.413 3.146 1.205.427.433.76.946.978 1.508.219.563.319 1.164.293 1.766a.5.5 0 101 .042 5.36 5.36 0 00-.361-2.17 5.442 5.442 0 00-1.204-1.854l-.01-.01C15.89 6.002 14.585 5.5 13.079 5.5z" fill="#fff"/><path d="M13.045 7.144a.5.5 0 100 1h.017c.912.065 1.576.369 2.041.868.477.514.724 1.153.705 1.943a.5.5 0 001 .023c.024-1.037-.31-1.932-.972-2.646V8.33c-.677-.726-1.606-1.11-2.724-1.185l-.017-.002-.05.001z" fill="#fff"/><path d="M13.026 8.82a.5.5 0 10-.052.997c.418.022.685.148.853.317.169.17.295.443.318.87a.5.5 0 10.998-.053c-.032-.6-.22-1.13-.605-1.52-.387-.39-.914-.58-1.512-.612z" fill="#fff"/></svg>
